icons/drupal-light.svg

<svg xmlns="http://www.w3.org/2000/svg" width="256" height="256"><path d="M256 50v156c0 27.596-22.404 50-50 50H50c-27.596 0-50-22.404-50-50V50C0 22.404 22.404 0 50 0h156c27.596 0 50 22.404 50 50" style="fill:#f4f2ed"/><path d="M0 107.005c-.8 1.749-2.614 4.669-5.063 4.759-4.365.159-4.832-2.078-8.058-6.853-7.083-10.481-68.896-75.084-80.458-87.577-10.169-10.99-1.432-18.737 2.621-22.797 5.085-5.094 19.928-19.928 19.928-19.928s44.258 41.992 62.694 70.684C10.1 73.984 3.746 98.812 0 107.005m-71.026 60.177c-20.495 0-37.108-16.614-37.109-37.108v-.001c0-9.395 3.736-17.768 9.25-24.51 6.691-8.183 27.854-31.196 27.854-31.196s20.839 23.351 27.804 31.117a36.3 36.3 0 0 1 9.31 24.589c0 20.495-16.615 37.109-37.109 37.109m-62.037-55.466c-6.616-.226-31.033-42.31 14.264-87.12l29.974 32.742a2.564 2.564 0 0 1-.2 3.823c-7.153 7.336-37.639 37.907-41.428 48.479-.782 2.181-1.925 2.099-2.61 2.076M-26.627-27.411c-19.839-19.831-38.769-38.734-44.402-60.055-5.634 21.321-24.566 40.224-44.403 60.055-29.755 29.736-63.491 63.438-63.491 113.984 0 59.59 48.307 107.898 107.897 107.898 59.589 0 107.897-48.308 107.897-107.898 0-50.543-33.733-84.248-63.498-113.984" style="fill:#009cde;fill-rule:nonzero" transform="translate(175.396 92.266)scale(.6673)"/></svg>

<svg width="256" height="256" viewBox="0 0 256 256" xmlns="http://www.w3.org/2000/svg">
<path d="M256,50L256,206C256,233.596 233.596,256 206,256L50,256C22.404,256 0,233.596 0,206L0,50C0,22.404 22.404,0 50,0L206,0C233.596,0 256,22.404 256,50Z" style="fill:rgb(244,242,237);"/>
<g transform="matrix(0.667303,0,0,0.667303,175.396,92.2663)">
<path d="M0,107.005C-0.8,108.754 -2.614,111.674 -5.063,111.764C-9.428,111.923 -9.895,109.686 -13.121,104.911C-20.204,94.43 -82.017,29.827 -93.579,17.334C-103.748,6.344 -95.011,-1.403 -90.958,-5.463C-85.873,-10.557 -71.03,-25.391 -71.03,-25.391C-71.03,-25.391 -26.772,16.601 -8.336,45.293C10.1,73.984 3.746,98.812 0,107.005M-71.026,167.182C-91.521,167.182 -108.134,150.568 -108.135,130.074L-108.135,130.073C-108.135,120.678 -104.399,112.305 -98.885,105.563C-92.194,97.38 -71.031,74.367 -71.031,74.367C-71.031,74.367 -50.192,97.718 -43.227,105.484C-37.159,112.229 -33.838,121.001 -33.917,130.073C-33.917,150.568 -50.532,167.182 -71.026,167.182M-133.063,111.716C-139.679,111.49 -164.096,69.406 -118.799,24.596L-88.825,57.338C-87.819,58.333 -87.809,59.955 -88.803,60.962C-88.874,61.032 -88.948,61.099 -89.025,61.161C-96.178,68.497 -126.664,99.068 -130.453,109.64C-131.235,111.821 -132.378,111.739 -133.063,111.716M-26.627,-27.411C-46.466,-47.242 -65.396,-66.145 -71.029,-87.466C-76.663,-66.145 -95.595,-47.242 -115.432,-27.411C-145.187,2.325 -178.923,36.027 -178.923,86.573C-178.923,146.163 -130.616,194.471 -71.026,194.471C-11.437,194.471 36.871,146.163 36.871,86.573C36.871,36.03 3.138,2.325 -26.627,-27.411" style="fill:rgb(0,156,222);fill-rule:nonzero;"/>
</g>
</svg>
